X:1
T:Polka
R:Polka
B:Massif Central Tune Book no 1 number 111
M:2/4
L:1/8
N:originally in G
K:C
Gc BA|Ge e2|fd dc/d/|ef g2|Gc BA|Ge e2|fd dc/d/|ed c2:|
ge e2|ge e2|fd dc/d/|ef g2|ge e2|ge e2|fd dc/d/|ed c2:|
<end>
<start>
